;generated by ffslicer 1.3.0 11/24/16 18:10:16
;start gcode
M118 X30.00 Y49.88 Z48.79 T0
M140 S0
M104 S225 T0
M104 S0 T1
M107
G90
G28
M132 X Y Z A B
G1 Z50.00 F600
G161 X Y F3300
M6 T0
M907 X100 Y100 Z40 A80 B20
;preExtrude: 0.20
G1 Z.20 F400
M108 T0
;preExtruder0
G1 X-4.51 Y-48.94 F7200
G1 X17.14 Y-8.39 E6.6660 F1200
G1 X17.14 Y47.87 E14.8245
G1 X-.63 Y47.87 E17.4014
;raft
;layer:0.40
G1 Z.40 F400
;support-start
;raft
G1 X15.34 Y-7.94 F4200
G1 X15.34 Y46.07 E36.9819 F600
G1 X-16.58 Y46.07 E48.5540
G1 X-16.58 Y-8.16 E68.2143
G1 X-13.55 Y-11.40 E69.8226
G1 X12.57 Y-11.40 E79.2920
G1 X15.34 Y-7.94 E80.8988
G1 X14.34 Y-5.63 F4200
G1 X9.57 Y-10.40 E83.3444 F600
G1 X3.91 Y-10.40 E85.3964
G1 X14.34 Y.03 E90.7439
G1 X14.34 Y5.69 E92.7958
G1 X-1.74 Y-10.40 E101.0427
G1 X-7.40 Y-10.40 E103.0946
G1 X14.34 Y11.34 E114.2408
G1 X14.34 Y17.00 E116.2927
G1 X-13.06 Y-10.40 E130.3408
G1 X-13.11 Y-10.40 E130.3589
G1 X-15.58 Y-7.76 E131.6696
G1 X-15.58 Y-7.26 E131.8509
G1 X14.34 Y22.66 E147.1909
G1 X14.34 Y28.31 E149.2392
G1 X-15.58 Y-1.60 E164.5767
G1 X-15.58 Y4.05 E166.6251
G1 X14.34 Y33.97 E181.9651
G1 X14.34 Y39.63 E184.0171
G1 X-15.58 Y9.71 E199.3572
G1 X-15.58 Y15.37 E201.4091
G1 X14.13 Y45.07 E216.6389
G1 X8.47 Y45.07 E218.6909
G1 X-15.58 Y21.02 E231.0214
G1 X-15.58 Y26.68 E233.0733
G1 X2.81 Y45.07 E242.5019
G1 X-2.84 Y45.07 E244.5503
G1 X-15.58 Y32.34 E251.0795
G1 X-15.58 Y37.99 E253.1279
G1 X-8.50 Y45.07 E256.7578
G1 X-14.16 Y45.07 E258.8097
G1 X-15.58 Y43.65 E259.5378
;raft
G1 X-5.80 Y-47.52 F4200
G1 X-3.44 Y-41.82 E261.7744 F600
G1 X-5.80 Y-36.12 E264.0109
G1 X-11.50 Y-33.75 E266.2489
G1 X-17.20 Y-36.11 E268.4855
G1 X-19.56 Y-41.82 E270.7254
G1 X-17.20 Y-47.52 E272.9619
G1 X-11.50 Y-49.88 E275.1985
G1 X-5.80 Y-47.52 E277.4350
G1 X-4.84 Y-42.61 F4200
G1 X-10.71 Y-48.47 E280.4420 F600
G1 X-11.50 Y-48.80 E280.7524
G1 X-14.11 Y-47.72 E281.7764
G1 X-5.60 Y-39.20 E286.1421
G1 X-6.56 Y-36.88 E287.0524
G1 X-7.18 Y-36.62 E287.2961
G1 X-16.69 Y-46.13 E292.1719
G1 X-17.91 Y-43.19 E293.3259
G1 X-10.13 Y-35.40 E297.3173
G1 X-11.50 Y-34.84 E297.8538
G1 X-15.29 Y-36.40 E299.3397
G1 X-16.91 Y-38.03 E300.1728
;support-end
;layer:0.20
G1 Z.60 F400
;support-start
;raft
M104 S220 T0
G1 X-5.80 Y-47.52 F7200
G1 X-3.44 Y-41.82 E300.3965 F3600
G1 X-5.80 Y-36.12 E300.6201
G1 X-11.50 Y-33.75 E300.8439
G1 X-17.20 Y-36.11 E301.0676
G1 X-19.56 Y-41.82 E301.2916
G1 X-17.20 Y-47.52 E301.5152
G1 X-11.50 Y-49.88 E301.7389
G1 X-5.80 Y-47.52 E301.9625
G1 X-6.66 Y-35.97 F7200
G1 X-5.65 Y-36.98 E302.0143 F3600
G1 X-4.68 Y-39.34 E302.1068
G1 X-9.03 Y-34.99 E302.3298
G1 X-11.39 Y-34.01 E302.4225
G1 X-3.70 Y-41.71 E302.8170
G1 X-3.65 Y-41.82 E302.8214
G1 X-4.04 Y-42.75 E302.8580
G1 X-12.44 Y-34.36 E303.2884
G1 X-13.42 Y-34.76 E303.3268
G1 X-4.45 Y-43.74 E303.7869
G1 X-4.85 Y-44.72 E303.8253
G1 X-14.40 Y-35.17 E304.3149
G1 X-15.38 Y-35.58 E304.3534
G1 X-5.26 Y-45.70 E304.8723
G1 X-5.67 Y-46.68 E304.9107
G1 X-16.36 Y-35.98 E305.4591
G1 X-17.05 Y-36.27 E305.4862
G1 X-17.17 Y-36.56 E305.4976
G1 X-6.24 Y-47.49 E306.0580
G1 X-7.23 Y-47.89 E306.0967
G1 X-17.58 Y-37.54 E306.6274
G1 X-17.98 Y-38.52 E306.6657
G1 X-8.21 Y-48.30 E307.1669
G1 X-9.19 Y-48.71 E307.2054
G1 X-18.39 Y-39.50 E307.6773
G1 X-18.80 Y-40.49 E307.7162
G1 X-10.17 Y-49.11 E308.1584
G1 X-11.15 Y-49.52 E308.1969
G1 X-19.20 Y-41.47 E308.6096
G1 X-19.35 Y-41.82 E308.6234
G1 X-18.72 Y-43.34 E308.6831
G1 X-13.02 Y-49.03 E308.9750
G1 X-15.39 Y-48.05 E309.0680
G1 X-17.74 Y-45.71 E309.1882
;raft
G1 X15.34 Y-7.94 F7200
G1 X15.34 Y46.07 E311.1463 F3600
G1 X-16.58 Y46.07 E312.3035
G1 X-16.58 Y-8.16 E314.2695
G1 X-13.55 Y-11.40 E314.4304
G1 X12.57 Y-11.40 E315.3773
G1 X15.34 Y-7.94 E315.5380
G1 X-15.97 Y-8.51 F7200
G1 X-13.29 Y-11.20 E315.6756 F3600
G1 X-11.40 Y-11.20 E315.7442
G1 X-16.38 Y-6.22 E315.9995
G1 X-16.38 Y-4.34 E316.0676
G1 X-9.52 Y-11.20 E316.4194
G1 X-7.63 Y-11.20 E316.4879
G1 X-16.38 Y-2.45 E316.9365
G1 X-16.38 Y-.57 E317.0047
G1 X-5.75 Y-11.20 E317.5497
G1 X-3.86 Y-11.20 E317.6182
G1 X-16.38 Y1.32 E318.2601
G1 X-16.38 Y3.20 E318.3283
G1 X-1.98 Y-11.20 E319.0665
G1 X-.09 Y-11.20 E319.1351
G1 X-16.38 Y5.09 E319.9703
G1 X-16.38 Y6.97 E320.0384
G1 X1.79 Y-11.20 E320.9700
G1 X3.68 Y-11.20 E321.0386
G1 X-16.38 Y8.86 E322.0670
G1 X-16.38 Y10.74 E322.1352
G1 X5.56 Y-11.20 E323.2601
G1 X7.45 Y-11.20 E323.3286
G1 X-16.38 Y12.63 E324.5504
G1 X-16.38 Y14.51 E324.6185
G1 X9.34 Y-11.20 E325.9369
G1 X11.22 Y-11.20 E326.0051
G1 X-16.38 Y16.40 E327.4201
G1 X-16.38 Y18.29 E327.4887
G1 X12.75 Y-10.84 E328.9822
G1 X13.59 Y-9.80 E329.0307
G1 X-16.38 Y20.17 E330.5672
G1 X-16.38 Y22.06 E330.6357
G1 X14.43 Y-8.75 E332.2153
G1 X15.14 Y-7.87 E332.2564
G1 X15.14 Y-7.58 E332.2669
G1 X-16.38 Y23.94 E333.8829
G1 X-16.38 Y25.83 E333.9514
G1 X15.14 Y-5.69 E335.5675
G1 X15.14 Y-3.81 E335.6356
G1 X-16.38 Y27.71 E337.2516
G1 X-16.38 Y29.60 E337.3202
G1 X15.14 Y-1.92 E338.9362
G1 X15.14 Y-.04 E339.0043
G1 X-16.38 Y31.48 E340.6204
G1 X-16.38 Y33.37 E340.6889
G1 X15.14 Y1.85 E342.3049
G1 X15.14 Y3.73 E342.3731
G1 X-16.38 Y35.25 E343.9891
G1 X-16.38 Y37.14 E344.0577
G1 X15.14 Y5.62 E345.6737
G1 X15.14 Y7.50 E345.7419
G1 X-16.38 Y39.02 E347.3579
G1 X-16.38 Y40.91 E347.4264
G1 X15.14 Y9.39 E349.0425
G1 X15.14 Y11.27 E349.1106
G1 X-16.38 Y42.79 E350.7266
G1 X-16.38 Y44.68 E350.7952
G1 X15.14 Y13.16 E352.4112
G1 X15.14 Y15.05 E352.4797
G1 X-15.69 Y45.87 E354.0601
G1 X-13.80 Y45.87 E354.1287
G1 X15.14 Y16.93 E355.6124
G1 X15.14 Y18.81 E355.6806
G1 X-11.92 Y45.87 E357.0679
G1 X-10.03 Y45.87 E357.1365
G1 X15.14 Y20.70 E358.4270
G1 X15.14 Y22.58 E358.4951
G1 X-8.15 Y45.87 E359.6892
G1 X-6.26 Y45.87 E359.7577
G1 X15.14 Y24.47 E360.8549
G1 X15.14 Y26.35 E360.9231
G1 X-4.38 Y45.87 E361.9239
G1 X-2.49 Y45.87 E361.9924
G1 X15.14 Y28.24 E362.8963
G1 X15.14 Y30.12 E362.9645
G1 X-.61 Y45.87 E363.7720
G1 X1.28 Y45.87 E363.8405
G1 X15.14 Y32.01 E364.5511
G1 X15.14 Y33.90 E364.6196
G1 X3.16 Y45.87 E365.2336
G1 X5.05 Y45.87 E365.3021
G1 X15.14 Y35.78 E365.8194
G1 X15.14 Y37.67 E365.8880
G1 X6.93 Y45.87 E366.3086
G1 X8.82 Y45.87 E366.3772
G1 X15.14 Y39.55 E366.7012
G1 X15.14 Y41.44 E366.7697
G1 X10.70 Y45.87 E366.9971
G1 X12.59 Y45.87 E367.0656
G1 X15.14 Y43.32 E367.1964
G1 X15.14 Y45.21 E367.2649
G1 X14.48 Y45.87 E367.2987
;support-end
;layer:0.20
G1 Z.80 F400
;support-start
;raft
G1 X15.34 Y-7.94 F7200
G1 X15.34 Y46.07 E369.2568 F4800
G1 X-16.58 Y46.07 E370.4140
G1 X-16.58 Y-8.16 E372.3801
G1 X-13.55 Y-11.40 E372.5409
G1 X12.57 Y-11.40 E373.4878
G1 X15.34 Y-7.94 E373.6485
G1 X13.13 Y-10.38 F7200
G1 X12.31 Y-11.20 E373.6905 F4800
G1 X11.71 Y-11.20 E373.7123
G1 X15.14 Y-7.77 E373.8881
G1 X15.14 Y-7.18 E373.9095
G1 X11.12 Y-11.20 E374.1156
G1 X10.52 Y-11.20 E374.1373
G1 X15.14 Y-6.58 E374.3742
G1 X15.14 Y-5.98 E374.3960
G1 X9.93 Y-11.20 E374.6633
G1 X9.33 Y-11.20 E374.6851
G1 X15.14 Y-5.39 E374.9830
G1 X15.14 Y-4.79 E375.0047
G1 X8.73 Y-11.20 E375.3334
G1 X8.14 Y-11.20 E375.3547
G1 X15.14 Y-4.20 E375.7137
G1 X15.14 Y-3.60 E375.7354
G1 X7.54 Y-11.20 E376.1251
G1 X6.95 Y-11.20 E376.1464
G1 X15.14 Y-3.01 E376.5664
G1 X15.14 Y-2.41 E376.5881
G1 X6.35 Y-11.20 E377.0388
G1 X5.76 Y-11.20 E377.0601
G1 X15.14 Y-1.82 E377.5411
G1 X15.14 Y-1.22 E377.5628
G1 X5.16 Y-11.20 E378.0745
G1 X4.57 Y-11.20 E378.0959
G1 X15.14 Y-.63 E378.6378
G1 X15.14 Y-.03 E378.6596
G1 X3.97 Y-11.20 E379.2322
G1 X3.38 Y-11.20 E379.2536
G1 X15.14 Y.56 E379.8565
G1 X15.14 Y1.16 E379.8783
G1 X2.78 Y-11.20 E380.5120
G1 X2.19 Y-11.20 E380.5334
G1 X15.14 Y1.76 E381.1976
G1 X15.14 Y2.35 E381.2189
G1 X1.59 Y-11.20 E381.9137
G1 X1.00 Y-11.20 E381.9350
G1 X15.14 Y2.95 E382.6603
G1 X15.14 Y3.54 E382.6816
G1 X.40 Y-11.20 E383.4374
G1 X-.20 Y-11.20 E383.4591
G1 X15.14 Y4.14 E384.2456
G1 X15.14 Y4.73 E384.2670
G1 X-.79 Y-11.20 E385.0837
G1 X-1.39 Y-11.20 E385.1055
G1 X15.14 Y5.33 E385.9530
G1 X15.14 Y5.92 E385.9743
G1 X-1.98 Y-11.20 E386.8521
G1 X-2.58 Y-11.20 E386.8739
G1 X15.14 Y6.52 E387.7824
G1 X15.14 Y7.11 E387.8037
G1 X-3.17 Y-11.20 E388.7425
G1 X-3.77 Y-11.20 E388.7642
G1 X15.14 Y7.71 E389.7338
G1 X15.14 Y8.30 E389.7551
G1 X-4.36 Y-11.20 E390.7549
G1 X-4.96 Y-11.20 E390.7767
G1 X15.14 Y8.90 E391.8072
G1 X15.14 Y9.50 E391.8290
G1 X-5.55 Y-11.20 E392.8900
G1 X-6.15 Y-11.20 E392.9117
G1 X15.14 Y10.09 E394.0032
G1 X15.14 Y10.69 E394.0250
G1 X-6.74 Y-11.20 E395.1471
G1 X-7.34 Y-11.20 E395.1688
G1 X15.14 Y11.28 E396.3214
G1 X15.14 Y11.88 E396.3432
G1 X-7.94 Y-11.20 E397.5264
G1 X-8.53 Y-11.20 E397.5478
G1 X15.14 Y12.47 E398.7614
G1 X15.14 Y13.07 E398.7831
G1 X-9.13 Y-11.20 E400.0275
G1 X-9.72 Y-11.20 E400.0489
G1 X15.14 Y13.66 E401.3234
G1 X15.14 Y14.26 E401.3452
G1 X-10.32 Y-11.20 E402.6506
G1 X-10.91 Y-11.20 E402.6719
G1 X15.14 Y14.85 E404.0075
G1 X15.14 Y15.45 E404.0292
G1 X-11.51 Y-11.20 E405.3956
G1 X-12.10 Y-11.20 E405.4170
G1 X15.14 Y16.04 E406.8136
G1 X15.14 Y16.64 E406.8353
G1 X-12.70 Y-11.20 E408.2627
G1 X-13.29 Y-11.20 E408.2841
G1 X15.14 Y17.24 E409.7420
G1 X15.14 Y17.83 E409.7633
G1 X-13.67 Y-10.98 E411.2404
G1 X-13.96 Y-10.67 E411.2558
G1 X15.14 Y18.43 E412.7478
G1 X15.14 Y19.02 E412.7691
G1 X-14.24 Y-10.36 E414.2755
G1 X-14.53 Y-10.05 E414.2908
G1 X15.14 Y19.62 E415.8120
G1 X15.14 Y20.21 E415.8334
G1 X-14.82 Y-9.75 E417.3695
G1 X-15.11 Y-9.44 E417.3848
G1 X15.14 Y20.81 E418.9358
G1 X15.14 Y21.40 E418.9571
G1 X-15.39 Y-9.13 E420.5224
G1 X-15.68 Y-8.82 E420.5378
G1 X15.14 Y22.00 E422.1180
G1 X15.14 Y22.59 E422.1393
G1 X-15.97 Y-8.51 E423.7341
G1 X-16.26 Y-8.21 E423.7492
G1 X15.14 Y23.19 E425.3591
G1 X15.14 Y23.79 E425.3808
G1 X-16.38 Y-7.73 E426.9969
G1 X-16.38 Y-7.14 E427.0182
G1 X15.14 Y24.38 E428.6343
G1 X15.14 Y24.98 E428.6560
G1 X-16.38 Y-6.54 E430.2721
G1 X-16.38 Y-5.95 E430.2934
G1 X15.14 Y25.57 E431.9094
G1 X15.14 Y26.17 E431.9312
G1 X-16.38 Y-5.35 E433.5472
G1 X-16.38 Y-4.76 E433.5686
G1 X15.14 Y26.76 E435.1847
G1 X15.14 Y27.36 E435.2064
G1 X-16.38 Y-4.16 E436.8224
G1 X-16.38 Y-3.56 E436.8442
G1 X15.14 Y27.95 E438.4600
G1 X15.14 Y28.55 E438.4817
G1 X-16.38 Y-2.97 E440.0977
G1 X-16.38 Y-2.37 E440.1195
G1 X15.14 Y29.14 E441.7353
G1 X15.14 Y29.74 E441.7570
G1 X-16.38 Y-1.78 E443.3730
G1 X-16.38 Y-1.18 E443.3948
G1 X15.14 Y30.33 E445.0106
G1 X15.14 Y30.93 E445.0323
G1 X-16.38 Y-.59 E446.6484
G1 X-16.38 Y.01 E446.6701
G1 X15.14 Y31.53 E448.2862
G1 X15.14 Y32.12 E448.3075
G1 X-16.38 Y.60 E449.9235
G1 X-16.38 Y1.20 E449.9453
G1 X15.14 Y32.72 E451.5613
G1 X15.14 Y33.31 E451.5827
G1 X-16.38 Y1.79 E453.1988
G1 X-16.38 Y2.39 E453.2205
G1 X15.14 Y33.91 E454.8365
G1 X15.14 Y34.50 E454.8579
G1 X-16.38 Y2.98 E456.4739
G1 X-16.38 Y3.58 E456.4957
G1 X15.14 Y35.10 E458.1117
G1 X15.14 Y35.69 E458.1331
G1 X-16.38 Y4.18 E459.7489
G1 X-16.38 Y4.77 E459.7703
G1 X15.14 Y36.29 E461.3863
G1 X15.14 Y36.88 E461.4076
G1 X-16.38 Y5.37 E463.0234
G1 X-16.38 Y5.96 E463.0448
G1 X15.14 Y37.48 E464.6609
G1 X15.14 Y38.07 E464.6822
G1 X-16.38 Y6.56 E466.2980
G1 X-16.38 Y7.15 E466.3194
G1 X15.14 Y38.67 E467.9354
G1 X15.14 Y39.27 E467.9571
G1 X-16.38 Y7.75 E469.5732
G1 X-16.38 Y8.34 E469.5946
G1 X15.14 Y39.86 E471.2106
G1 X15.14 Y40.46 E471.2323
G1 X-16.38 Y8.94 E472.8484
G1 X-16.38 Y9.53 E472.8697
G1 X15.14 Y41.05 E474.4858
G1 X15.14 Y41.65 E474.5075
G1 X-16.38 Y10.13 E476.1236
G1 X-16.38 Y10.72 E476.1449
G1 X15.14 Y42.24 E477.7610
G1 X15.14 Y42.84 E477.7827
G1 X-16.38 Y11.32 E479.3987
G1 X-16.38 Y11.92 E479.4205
G1 X15.14 Y43.43 E481.0363
G1 X15.14 Y44.03 E481.0580
G1 X-16.38 Y12.51 E482.6741
G1 X-16.38 Y13.11 E482.6958
G1 X15.14 Y44.62 E484.3116
G1 X15.14 Y45.22 E484.3333
G1 X-16.38 Y13.70 E485.9494
G1 X-16.38 Y14.30 E485.9711
G1 X15.14 Y45.81 E487.5869
G1 X15.14 Y45.87 E487.5891
G1 X14.60 Y45.87 E487.6086
G1 X-16.38 Y14.89 E489.1970
G1 X-16.38 Y15.49 E489.2187
G1 X14.01 Y45.87 E490.7766
G1 X13.41 Y45.87 E490.7983
G1 X-16.38 Y16.08 E492.3257
G1 X-16.38 Y16.68 E492.3474
G1 X12.82 Y45.87 E493.8443
G1 X12.22 Y45.87 E493.8660
G1 X-16.38 Y17.27 E495.3324
G1 X-16.38 Y17.87 E495.3541
G1 X11.63 Y45.87 E496.7899
G1 X11.03 Y45.87 E496.8117
G1 X-16.38 Y18.46 E498.2170
G1 X-16.38 Y19.06 E498.2387
G1 X10.43 Y45.87 E499.6133
G1 X9.84 Y45.87 E499.6347
G1 X-16.38 Y19.65 E500.9790
G1 X-16.38 Y20.25 E501.0008
G1 X9.24 Y45.87 E502.3143
G1 X8.65 Y45.87 E502.3357
G1 X-16.38 Y20.85 E503.6187
G1 X-16.38 Y21.44 E503.6401
G1 X8.05 Y45.87 E504.8926
G1 X7.46 Y45.87 E504.9140
G1 X-16.38 Y22.04 E506.1360
G1 X-16.38 Y22.63 E506.1574
G1 X6.86 Y45.87 E507.3489
G1 X6.27 Y45.87 E507.3703
G1 X-16.38 Y23.23 E508.5313
G1 X-16.38 Y23.82 E508.5526
G1 X5.67 Y45.87 E509.6832
G1 X5.08 Y45.87 E509.7045
G1 X-16.38 Y24.42 E510.8045
G1 X-16.38 Y25.01 E510.8259
G1 X4.48 Y45.87 E511.8954
G1 X3.89 Y45.87 E511.9168
G1 X-16.38 Y25.61 E512.9558
G1 X-16.38 Y26.20 E512.9771
G1 X3.29 Y45.87 E513.9856
G1 X2.69 Y45.87 E514.0074
G1 X-16.38 Y26.80 E514.9851
G1 X-16.38 Y27.39 E515.0065
G1 X2.10 Y45.87 E515.9539
G1 X1.50 Y45.87 E515.9757
G1 X-16.38 Y27.99 E516.8924
G1 X-16.38 Y28.59 E516.9142
G1 X.91 Y45.87 E517.8004
G1 X.31 Y45.87 E517.8222
G1 X-16.38 Y29.18 E518.6778
G1 X-16.38 Y29.78 E518.6996
G1 X-.28 Y45.87 E519.5248
G1 X-.88 Y45.87 E519.5465
G1 X-16.38 Y30.37 E520.3412
G1 X-16.38 Y30.97 E520.3629
G1 X-1.47 Y45.87 E521.1272
G1 X-2.07 Y45.87 E521.1489
G1 X-16.38 Y31.56 E521.8826
G1 X-16.38 Y32.16 E521.9043
G1 X-2.66 Y45.87 E522.6075
G1 X-3.26 Y45.87 E522.6292
G1 X-16.38 Y32.75 E523.3019
G1 X-16.38 Y33.35 E523.3236
G1 X-3.85 Y45.87 E523.9658
G1 X-4.45 Y45.87 E523.9876
G1 X-16.38 Y33.94 E524.5992
G1 X-16.38 Y34.54 E524.6209
G1 X-5.05 Y45.87 E525.2018
G1 X-5.64 Y45.87 E525.2232
G1 X-16.38 Y35.13 E525.7738
G1 X-16.38 Y35.73 E525.7956
G1 X-6.24 Y45.87 E526.3155
G1 X-6.83 Y45.87 E526.3368
G1 X-16.38 Y36.33 E526.8262
G1 X-16.38 Y36.92 E526.8476
G1 X-7.43 Y45.87 E527.3065
G1 X-8.02 Y45.87 E527.3278
G1 X-16.38 Y37.52 E527.7562
G1 X-16.38 Y38.11 E527.7776
G1 X-8.62 Y45.87 E528.1754
G1 X-9.21 Y45.87 E528.1969
G1 X-16.38 Y38.71 E528.5642
G1 X-16.38 Y39.30 E528.5856
G1 X-9.81 Y45.87 E528.9224
G1 X-10.40 Y45.87 E528.9438
G1 X-16.38 Y39.90 E529.2501
G1 X-16.38 Y40.49 E529.2715
G1 X-11.00 Y45.87 E529.5473
G1 X-11.59 Y45.87 E529.5687
G1 X-16.38 Y41.09 E529.8141
G1 X-16.38 Y41.68 E529.8354
G1 X-12.19 Y45.87 E530.0502
G1 X-12.79 Y45.87 E530.0720
G1 X-16.38 Y42.28 E530.2560
G1 X-16.38 Y42.87 E530.2774
G1 X-13.38 Y45.87 E530.4312
G1 X-13.98 Y45.87 E530.4530
G1 X-16.38 Y43.47 E530.5760
G1 X-16.38 Y44.07 E530.5978
G1 X-14.57 Y45.87 E530.6903
G1 X-15.17 Y45.87 E530.7121
G1 X-16.38 Y44.66 E530.7741
G1 X-16.38 Y45.26 E530.7959
G1 X-15.76 Y45.87 E530.8275
G1 X-16.36 Y45.87 E530.8492
G1 X-16.38 Y45.85 E530.8502
;raft
G1 X-5.80 Y-47.52 F7200
G1 X-3.44 Y-41.82 E531.0739 F4800
G1 X-5.80 Y-36.12 E531.2976
G1 X-11.50 Y-33.75 E531.5214
G1 X-17.20 Y-36.11 E531.7451
G1 X-19.56 Y-41.82 E531.9691
G1 X-17.20 Y-47.52 E532.1928
G1 X-11.50 Y-49.88 E532.4165
G1 X-5.80 Y-47.52 E532.6402
G1 X-6.20 Y-47.47 F7200
G1 X-5.84 Y-47.11 E532.6586 F4800
G1 X-5.42 Y-46.10 E532.6982
G1 X-7.22 Y-47.89 E532.7902
G1 X-8.23 Y-48.31 E532.8299
G1 X-5.00 Y-45.08 E532.9954
G1 X-4.58 Y-44.06 E533.0355
G1 X-9.25 Y-48.73 E533.2749
G1 X-10.27 Y-49.15 E533.3149
G1 X-4.16 Y-43.05 E533.6279
G1 X-3.74 Y-42.03 E533.6679
G1 X-11.28 Y-49.58 E534.0547
G1 X-11.50 Y-49.67 E534.0633
G1 X-11.83 Y-49.53 E534.0763
G1 X-3.79 Y-41.49 E534.4886
G1 X-3.96 Y-41.06 E534.5053
G1 X-12.25 Y-49.35 E534.9303
G1 X-12.67 Y-49.18 E534.9467
G1 X-4.14 Y-40.64 E535.3843
G1 X-4.31 Y-40.22 E535.4007
G1 X-13.09 Y-49.00 E535.8509
G1 X-13.51 Y-48.83 E535.8673
G1 X-4.49 Y-39.80 E536.3300
G1 X-4.66 Y-39.38 E536.3464
G1 X-13.94 Y-48.65 E536.8220
G1 X-14.36 Y-48.48 E536.8384
G1 X-4.83 Y-38.96 E537.3267
G1 X-5.01 Y-38.54 E537.3433
G1 X-14.78 Y-48.31 E537.8443
G1 X-15.20 Y-48.13 E537.8609
G1 X-5.18 Y-38.12 E538.3744
G1 X-5.36 Y-37.70 E538.3909
G1 X-15.62 Y-47.96 E538.9170
G1 X-16.04 Y-47.78 E538.9335
G1 X-5.53 Y-37.27 E539.4724
G1 X-5.71 Y-36.85 E539.4890
G1 X-16.46 Y-47.61 E540.0404
G1 X-16.88 Y-47.43 E540.0570
G1 X-5.88 Y-36.43 E540.6209
G1 X-5.95 Y-36.27 E540.6273
G1 X-6.20 Y-36.16 E540.6372
G1 X-17.15 Y-47.11 E541.1986
G1 X-17.33 Y-46.69 E541.2152
G1 X-6.63 Y-35.99 E541.7637
G1 X-7.05 Y-35.81 E541.7803
G1 X-17.50 Y-46.27 E542.3162
G1 X-17.68 Y-45.85 E542.3328
